X:1
T:Precious Blessings
T:Ira David Sankey
T:Precious Blessings
T:Public Domain,
T:Public Domain,
T:Public Domain,
C:Ira David Sankey
Z:Public Domain,
%%score ( 1 2 ) ( 3 4 )
L:1/8
M:4/4
K:Ab
V:1 treble 
V:2 treble 
V:3 bass 
V:4 bass 
V:1
 [CA]>[DB] | [Ec]>[Fd] [Ec]>[DB] [Ec]2 [EA]>[_GA] | [FA]>[GB] [FA]>[=EG] [FA]2 [_EG]>[DF] | %3
w: 1.~Pre- cious|bless- ings we re- ceive, When on|Je- sus we be- lieve, And are|
w: 2.~Pre- cious|bless- ings that de- scend, When be-|fore His throne we bend, And the|
w: 3.~When the|world is o- ver- come, And its|bat- tles fought and won, When we|
 [CE]>[CE] [CE]>[CE] [CA]>[EA] [=DG]>[DA] | [EB]4 z2 [EA]>[EB] | %5
w: walk- ing in the Spir- it day by|day; When His|
w: glo- ry cloud is rest- ing o’er us|there; Ev- ery|
w: see our Lord and Sav- ior in the|sky; How our|
 [Ec]>[Fd] [Ec]>[DB] [Ec]2 [EA]>[_GA] | [FA]>[FB] [FA]>[=EG] [FA]2 [_EG]>[DF] | %7
w: Word is our de- light, And our|path is grow- ing bright, While by|
w: heart with joy is filled, Ev- ery|wave of sor- row stilled, While we|
w: hearts will o- ver- flow, While the|rap- ture we shall know, When we|
 E>E [EA]>[Ec] [DB]>[DF] [DG]>[DE] | [CA]4 z ||"^Refrain" [Ec][Ec]>[Ec] | %10
w: faith we learn to trust Him and o-|praise|the Lord, for|
w: feel the hal- lowed bliss of an- swered|||
w: meet Him in His king- dom by and|||
 (EE E>E [EB])[Gd] [Ad]>[Ed] | (EC E>E [Ec])[Ee] [Ee]>[Fe] | (FF F>F [F_d])[=DB] [Fd]>[Af] | %13
w: He * * * * is good; O|the * * * * Lord, our God|bove, * * * * For He keeps|
w: |||
w: |||
 (GG A>A [Be]2) [Ee][E=d] | [Ec]>[Fd] [Ec]>[DB] [Ec]2 [EA]>[_GA] | %15
w: ev- * * * * ery hour,|* up- holds us by His power,|
w: ||
w: ||
 [FA]>[FB] [FA]>[=EG] [FA]2 [_EG]>[DF] | E>E [EA]>[Ec] [DB]>[DF] [DG]>[DE] | [CA]4 |] %18
w: While we dwell with- in the sun-|shine of His love. * * * *||
w: |||
w: |||
V:2
 x2 | x8 | x8 | x8 | x8 | x8 | x8 | E>E x6 | x5 || x3 | B4- x4 | c4- x4 | =d4- x4 | e4- x4 | x8 | %15
w: |||||||bey. O|||praise|a-|us|And||
w: |||||||prayer. *||||||||
w: |||||||by. *||||||||
 x8 | E>E x6 | x4 |] %18
w: |||
w: |||
w: |||
V:3
 [A,,E,]>[A,,E,] | [A,,A,]>[A,,A,] [A,,A,]>[A,,A,] [A,,A,]2 [C,A,]>[C,A,] | %2
w: ~ ~|~ ~ ~ ~ ~ ~ ~|
 [D,A,]>[D,A,] [D,A,]>[D,A,] [D,A,]2 [D,A,]>[D,A,] | %3
w: ~ ~ ~ ~ ~ ~ ~|
 [A,,A,]>[A,,A,] [A,,A,]>[A,,A,] [F,A,]>[F,A,] [B,,B,]>[B,,A,] | (E,2 E,2 E,>D,) [C,A,]>[B,,G,] | %5
w: ~ ~ ~ ~ ~ ~ ~ ~|~ * * * ~ ~|
 [A,,A,]>[A,,A,] [A,,A,]>[A,,A,] [A,,A,]2 [C,A,]>[C,A,] | %6
w: ~ ~ ~ ~ ~ ~ ~|
 [D,A,]>[D,A,] [D,A,]>[D,A,] [D,A,]2 [D,A,]>[D,A,] | %7
w: ~ ~ ~ ~ ~ ~ ~|
 [E,G,]>[D,B,] [C,A,]>[A,,A,] [D,F,]>[D,B,] [E,B,]>[E,G,] | [A,,A,]4 z || [A,,A,][A,,A,]>[C,A,] | %10
w: ~ ~ ~ ~ ~ ~ ~ ~|~|~ ~ ~|
 [E,G,][E,G,] [E,G,]>[E,G,] [E,G,][E,B,] [F,A,]>[G,B,] | %11
w: O praise the Lord, ~ ~ ~ ~|
 A,[E,_A,] [C,A,]>[E,_A,] A,[F,=A,] [F,A,]>[A,C] | %12
w: for He is good; ~ ~ ~ ~|
 B,B, [F,B,]>[=D,B,] [B,,B,][B,,B,] [B,,B,]>[B,,B,] | B,B, C>C [E,D]2 [E,C][E,B,] | %14
w: the Lord, ~ ~ ~ ~ our God||
 [A,,A,]>[A,,A,] [A,,A,]>[A,,A,] [A,,A,]2 [C,A,]>[C,A,] | %15
w: |
 [D,A,]>[D,A,] [D,A,]>[D,A,] [D,A,]2 [D,A,]>[D,A,] | %16
w: |
 [E,G,]>[D,B,] [C,A,]>[A,,A,] [D,F,]>[D,B,] [E,B,]>[E,G,] | [A,,A,]4 |] %18
w: ||
V:4
 x2 | x8 | x8 | x8 | G,4 x4 | x8 | x8 | x8 | x5 || x3 | x8 | =A, x2 =A, x4 | B,B, x6 | E,4- x4 | %14
w: ||||~|||||||O praise|above, *||
 x8 | x8 | x8 | x4 |] %18
w: ||||

